X:20
T:Manfrinas. JBs.020
T:Montferina,aka. JBs.020
T:Italian Montferina,aka. JBs.020
S:Jas.Blackshaw MS, 1837, N.Shropshire
Z:T.Weatherall 2006
M:6/8
L:1/8
Q:3/8=120
A:North Shropshire
R:Jig
K:G
â€œ_C in MSâ€D|GAB BcA|AGG G2d|(dFF) FGA|AGG G2:|!
|:g|gfaa2d|cBd d2g|gfa a2d|cBd d2g|!
gfg gfg|efg gfe|ded cBA|AGGG2:|

